public/images/broadcasters/tvp.svg

<svg clip-rule="evenodd" fill-rule="evenodd" stroke-linejoin="round" stroke-miterlimit="2" viewBox="0 0 604 294" xmlns="http://www.w3.org/2000/svg"><path d="m862.178-9.389h135.426v178.083h-135.426zm145.312 0h135.43v178.083h-135.43zm29.29 29.319v121.348h24.52v-37.048l5.29.173c33.03 0 49.25-21.464 49.25-42.752 0-20.943-15.71-41.721-46.99-41.721zm24.48 23.485h8.84c14.01.214 21 4.966 22 18.933-.87 14.494-9.06 19.105-23.17 19.346h-7.67zm-131.369 101.536-56.076-126.466h27.229l27.873 63.957.974 3.804.985-3.855 27.862-63.906h27.233zm-98.367-101.519v-23.478h-93.871v23.478h33.913v97.846h26.045v-97.846zm-114.647-52.821h135.426v178.083h-135.426zm-9.888-8.805h445.811v195.696h-445.811z" fill="#fff" transform="translate(-627.903 65.1422)"/></svg>

<?xml version="1.0" encoding="UTF-8" standalone="no"?>
<!DOCTYPE svg PUBLIC "-//W3C//DTD SVG 1.1//EN" "http://www.w3.org/Graphics/SVG/1.1/DTD/svg11.dtd">
<svg width="100%" height="100%" viewBox="0 0 604 294" version="1.1" xmlns="http://www.w3.org/2000/svg" xmlns:xlink="http://www.w3.org/1999/xlink" xml:space="preserve" xmlns:serif="http://www.serif.com/" style="fill-rule:evenodd;clip-rule:evenodd;stroke-linejoin:round;stroke-miterlimit:2;">
    <g id="g2415" transform="matrix(1,0,0,1,-627.903,65.1422)">
        <path id="path5" d="M862.178,-9.389L997.604,-9.389L997.604,168.694L862.178,168.694L862.178,-9.389ZM1007.49,-9.389L1142.92,-9.389L1142.92,168.694L1007.49,168.694L1007.49,-9.389ZM1036.78,19.93L1036.78,141.278L1061.3,141.278L1061.3,104.23L1066.59,104.403C1099.62,104.403 1115.84,82.939 1115.84,61.651C1115.84,40.708 1100.13,19.93 1068.85,19.93L1036.78,19.93ZM1061.26,43.415L1070.1,43.415C1084.11,43.629 1091.1,48.381 1092.1,62.348C1091.23,76.842 1083.04,81.453 1068.93,81.694L1061.26,81.694L1061.26,43.415ZM929.891,144.951L873.815,18.485L901.044,18.485L928.917,82.442L929.891,86.246L930.876,82.391L958.738,18.485L985.971,18.485L929.891,144.951ZM831.524,43.432L831.524,19.954L737.653,19.954L737.653,43.432L771.566,43.432L771.566,141.278L797.611,141.278L797.611,43.432L831.524,43.432ZM716.877,-9.389L852.303,-9.389L852.303,168.694L716.877,168.694L716.877,-9.389ZM706.989,-18.194L1152.8,-18.194L1152.8,177.502L706.989,177.502L706.989,-18.194Z" style="fill:white;"/>
    </g>
</svg>
